assets/images/icons/search-24.svg

<svg width="24" height="24" viewBox="0 0 24 24" xmlns="http://www.w3.org/2000/svg"><path d="M9.5 3C11.2239 3 12.8772 3.68482 14.0962 4.90381C15.3152 6.12279 16 7.77609 16 9.5C16 11.11 15.41 12.59 14.44 13.73L14.71 14H15.5L20.5 19L19 20.5L14 15.5V14.71L13.73 14.44C12.5505 15.4468 11.0507 15.9999 9.5 16C7.77609 16 6.12279 15.3152 4.90381 14.0962C3.68482 12.8772 3 11.2239 3 9.5C3 7.77609 3.68482 6.12279 4.90381 4.90381C6.12279 3.68482 7.77609 3 9.5 3ZM9.5 5C7 5 5 7 5 9.5C5 12 7 14 9.5 14C12 14 14 12 14 9.5C14 7 12 5 9.5 5Z"/></svg>

<?xml version="1.0" encoding="UTF-8"?>
<svg width="24" height="24" version="1.1" viewBox="0 0 24 24" xmlns="http://www.w3.org/2000/svg"><path d="m9.5 3c1.7239 0 3.3772 0.68482 4.5962 1.9038 1.219 1.219 1.9038 2.8723 1.9038 4.5962 0 1.61-0.59 3.09-1.56 4.23l0.27 0.27h0.79l5 5-1.5 1.5-5-5v-0.79l-0.27-0.27c-1.1795 1.0068-2.6793 1.5599-4.23 1.56-1.7239 0-3.3772-0.6848-4.5962-1.9038-1.219-1.219-1.9038-2.8723-1.9038-4.5962 0-1.7239 0.68482-3.3772 1.9038-4.5962 1.219-1.219 2.8723-1.9038 4.5962-1.9038zm0 2c-2.5 0-4.5 2-4.5 4.5s2 4.5 4.5 4.5 4.5-2 4.5-4.5-2-4.5-4.5-4.5z"/></svg>
